!!!ONB: MCCC : IFM0075_05 : Extracted Monophonic Melody
!!!COM: Mendelssohn, Felix
!!!OPR: Lieder ohne Worte
!!!OMV: 5
!!!SCT: Op.19b
!!!ODT: 1829///
**kern
*staff1
*clefG2
*k[f#c#g#]
*A:
*M6/4
8c#[
8c#]
=1
8c#
8c#
8c#[
8c#]
8f#[
8f#]
8f#
8f#
8f#[
8f#]
8a[
8a]
=2
8dd
8dd
8dd[
8dd]
8cc#[
8cc#]
8cc
8cc
8cc[
8cc]
8cc[
8cc]
=3
8cc#
8cc#
8cc#[
8cc#]
4b
4a
4g#
4a
=4
4cc#
4b
4a
4a
2g#
=5
8c#
8c#
8c#[
8c#]
8f#[
8f#]
8f#
8f#
8f#[
8f#]
8a[
8a]
=6
8dd
8dd
8dd[
8dd]
8cc#[
8cc#]
8cc
8cc
8cc[
8cc]
8cc[
8cc]
=7
2r
4a#
2b
4a#
=8
4b
4a
4g#
4f#
4e#
4a#
=9
2b
4a#
2b
4a#
=10
4b
4a
4g#
4f#
4e#
4a#
=11
2b
4cc#
4dd
4dd#
4ee
=12
4ff#
4gg
4gg#
4aa
4ccc#
4bb
=13
4bb
4aa#
4gg
4gg
4ff#
4ee
=14
4ee
4dd#
4dd
4dd
4cc#
4cc
=15
4b
4dd
4cc
4b
4ee
4cc
=16
4b
4dd
4cc
4b
4ee
4cc
=17
8b
8e
8d#
8e
8g#
8e
8b
8g#
8f##
8g#
8b
8g#
=18
8dd
8b
8ee#
8dd
8gg#
8ee#
8bb
8gg#
8ddd
8bb
8aa
8gg#
=19
8eee
8ddd
8ccc#
8bb
8aa
8gg#
8aa
8ff#
8dd#
8b
8a
8f#
=20
8dd
8b
8g#
8e
8d
8B
8g
8e
8c#
8A
8G#
8G
=21
8F#
8A#
8B
8F#
8c#
8F#
8d
8G#
8E
8G#
8D
8G#
=22
8C#
8E
8A
8B
8c#
8e
8c#
8B
8A
8E
4e
=23
2.a[
4a]
4g#
4a
=24
2.b
2.cc#
=25
4ee
4dd
4cc#
4b
4cc#
4b
=26
2a
4aa
2bb
4ccc#
=27
4eee
4ddd
4ccc#
4bb
4ccc#
4bb
=28
4aa
4gg#
4ff#
4ee
4dd#
4dd
=29
4cc#
4dd
4cc#
2b
4ee
=30
4aa
4gg#
4ff#
4ee
4dd#
4dd
=31
8r
8cc#
8dd
8ee
8ff#
8dd
8ee
8ff#
8gg#
8ee
8ff#
8gg#
=32
8aa
8ccc#
8ddd
8eee
8fff#
8ddd
8eee
8fff#
8ggg#
8eee
8fff#
8ggg#
=33
*M5/4
8aaa
8eee
8ccc#
8aa
8ee
8cc#
8a
8e
8c#
8A
=34
*M1/4
8c#[
8c#]
=35
*M6/4
8c#
8c#
8c#[
8c#]
8f#[
8f#]
8f#
8f#
8f#[
8f#]
8a[
8a]
=36
8dd
8dd
8dd[
8dd]
8cc#[
8cc#]
8cc
8cc
8cc[
8cc]
8cc[
8cc]
=37
8cc#
8cc#
8cc#[
8cc#]
4b
4a
4g#
4a
=38
4cc#
4b
4a
4a
2g#
=39
8dd
8dd
8dd[
8dd]
8cc#[
8cc#]
8cc
8cc
8cc[
8cc]
8cc[
8cc]
=40
8cc#
8cc#
8cc#[
8cc#]
8e
8c#
8d
8f#
8e
8d
8c#
8e
=41
2r
4a#
2b
4a#
=42
4b
4a
4g#
4f#
4e#
4a#
=43
2b
4a#
2b
4a#
=44
4b
4a
4g#
4f#
4e#
4a#
=45
2b
4cc#
4dd
4dd#
4ee
=46
4ff#
4gg
4gg#
4aa
4ccc#
4bb
=47
4bb
4aa#
4gg
4gg
4ff#
4ee
=48
4ee
4dd#
4dd
4dd
4cc#
4cc
=49
4b
4dd
4cc
4b
4ee
4cc
=50
4b
4dd
4cc
4b
4ee
4cc
=51
8b
8e
8d#
8e
8g#
8e
8b
8g#
8f##
8g#
8b
8g#
=52
8dd
8b
8ee#
8dd
8gg#
8ee#
8bb
8gg#
8ddd
8bb
8aa
8gg#
=53
8eee
8ddd
8ccc#
8bb
8aa
8gg#
8aa
8ff#
8dd#
8b
8a
8f#
=54
8dd
8b
8g#
8e
8d
8B
8g
8e
8c#
8A
8G#
8G
=55
8F#
8A#
8B
8F#
8c#
8F#
8d
8G#
8E
8G#
8D
8G#
=56
8C#
8E
8A
8B
8c#
8e
8c#
8B
8A
8E
4e
=57
2.a[
4a]
4g#
4a
=58
2.b
2.cc#
=59
4ee
4dd
4cc#
4b
4cc#
4b
=60
2a
4aa
2bb
4ccc#
=61
4eee
4ddd
4ccc#
4bb
4ccc#
4bb
=62
4aa
4gg#
4ff#
4ee
4dd#
4dd
=63
4cc#
4dd
4cc#
2b
4ee
=64
4aa
4gg#
4ff#
4ee
4dd#
4dd
=65
8r
8cc#
8dd
8ee
8ff#
8dd
8ee
8ff#
8gg#
8ee
8ff#
8gg#
=66
8aa
8ccc#
8ddd
8eee
8fff#
8ddd
8eee
8fff#
8ggg#
8eee
8fff#
8ggg#
=67
*M5/4
8aaa
8eee
8ccc#
8aa
8ee
8cc#
8a
8e
8c#
8A
=68
*M1/4
8E[
8E]
=69
*M6/4
8E
8E
8E[
8E]
8A[
8A]
8A
8A
8A[
8A]
8c[
8c]
=70
8e#
8e#
8e#[
8e#]
8e[
8e]
8d#
8d#
8d#[
8d#]
8d#[
8d#]
=71
4.e
8E
8B
8d#
4.e
8e
8b
8dd#
=72
4.ee
8eee
8ccc#
8aa#
8gg
8ee
8cc#
8a#
8f#[
8f#]
=73
8f#
8f#
8f#[
8f#]
8b[
8b]
8b
8b
8b[
8b]
8dd[
8dd]
=74
8gg
8gg
8gg[
8gg]
8ff#[
8ff#]
8ee#
8ee#
8ee#[
8ee#]
8ee#[
8ee#]
=75
4.ff#
8f#
8cc#
8ee#
4.ff#
8ff#
8ccc#
8eee#
=76
4.fff#
8ddd#
8ccc
8aa
8ff#
8dd#
8cc
8a
8f#
8d#
=77
4.c#
8c#
8g#
8b
4.a#
8cc#
8ff#
8aa#
=78
8ccc#
4bb
8B
8f#
8a
4.g#
8b
8ee
8gg#
=79
8bb
4aa
8A
8e
8g#
4.f##
8a#
8dd#
8gg
=80
8aa
4gg#
8G#
8c
8f#
4.e#
8g#
8cc#
8ee#
=81
8gg#
4ff#
8f#
8b
8ee
4.dd
8a
8g#
8cc#
=82
8gg#
4ff#
8f#
8b
8ee
4.dd
8a
8g#
8cc#
=83
4.b
8B
8e
8a#
4.b
8B
8e
8a#
=84
8b
8B
8e
8a#
8b
8B
8e
8a#
8b
8B
8e
8a#
=85
2.b#
2.cc#
=86
2.b#
2.cc#
=87
1.cc
=88
2.b
2.dd
=89
2.cc#
2.ee
=90
2.dd
2.cc#
=91
2.cc
2.b
=92
2.a#
2.a
=93
8g#
8e#
8c#
8e#
8g#
8cc#
8g#
8e#
8c#
8e#
8g#
8cc#
=94
8a
8f#
8c#
8f#
8a
8cc#
8a
8f#
8d#
8f#
8a
8cc
=95
8cc#
8g#
8e#
8g#
8cc#
8ee#
8gg#
8ee#
8bb
8gg#
8ff#
8ee#
=96
8ccc#
8bb
8aa#
8gg#
8ff#
8ee#
8ff#
8dd#
8cc
8g#
8f#
8d#
=97
2.e#
2.r
=98
1.r
=99
8b
8g#
8e#
8c#
8c
8B
8A#
8c#
8e
8ee
8cc#
8a#
=100
8g
8d#
8g#
8d#
8a#
8d#
8b
8e#
8c#
8e#
8B
8e#
=101
8A#
8c#
8f#
8a#
8f#
8c#
8A#
8G#
8F#
8C#
4c#[
=102
4c#]
4d#
4c#
2.c
=103
2.g#
2.a#
=104
4cc#
4b
4a#
4g#
4a#
4g#
=105
2f#
4ff#
2gg#
4aa#
=106
4ccc#
4bb
4aa#
4gg#
4aa#
4gg#
=107
2ff#
4ff#
2gg#
4aa#
=108
4ccc#
4bb
4aa#
4aa#
4gg#
4ff#
=109
4ff#
4ee#
4dd#
4cc#
4cc#
4cc#
=110
4cc#
4b
4a#
4cc#
4b
4g#
=111
2.f#
2.e#
=112
4ff#
4ee#
4dd#
4cc#
4cc
4b
=113
4a#
4b
4a#
2g#
4cc#
=114
4ff#
4ee#
4dd#
4cc#
4cc
4b
=115
8a#
8e#
8f#
8g#
8a#
8b
8cc#
8b#
8cc#
8dd#
8ee
8ee#
=116
8ff#
8ee#
8ff#
8gg#
8aa#
8bb
8ccc#
8bb#
8ccc#
8ddd#
8eee
8eee#
=117
8fff#
8ccc#
8aa#
8gg#
8aa#
8ff#
8ccc#
8aa#
8ff#
8ee#
8ff#
8cc#
=118
8aa#
8ff#
8cc#
8b
8cc#
8a#
8ff#
8cc#
8a#
8g#
8a#
8f#
=119
8cc#
8a#
8f#
8c#
8A#
8F#
8C#
8a#
8cc#
8ff#
8aa#
8ccc#
=120
2.fff#
2.a#
=121
2.ff#
2.r
==
*-
